X: 39706
T: Terry 'Cuz' Teehan's
R: barndance
M: 4/4
K: Edorian
|:B2 B>A B2 A>B|d>BA>F D>EF<A|
B2 B>A (3BcB A>B|1 d>BA>d B>EF>A:|2 d>BA>F E2 E2||
|:B2- B>^A (3BcB =A>B|d2 A>F D2 F<A|
(3BcB B>A B2 A>B|1 d>BA>d B>E (3FGA:|2 d>BA<F E2- E2||

